X:0874
T:Admiral Howe's March.
M:C
L:1/8
Q:1/2=72
I: :: :|
Z:Jack Campin * www.campin.me.uk * 2009
K:D
FE |D2 FD  A2 cA |d2 dd  d2 e2 |f>d``````g>e   f2 ed |e2 e>e e2 F>E|
    D2 F>D A2 c>A|d2 f>d e2 g>e|fe/f/ {a}gf/e/ d2 e2 |d2 d>d d2   :|
A>d|e2 e>e e>fg>e|f2 dd  d2 A2 |d2       f>d   e2 g>f|e>dc>B A>GF>E|
    D2 F>D A2 c>A|d2 f>d e2 g>e|fe/f/ {a}gf/e/ d2 e2 |d2 d2  d2   :|
<end>
<start>
